home-floor-3.svg

<svg fill="currentColor" viewBox="0 0 24 24"><path d="m12 3 10 9h-3v8H5v-8H2zm3 8.5V10a2 2 0 0 0-2-2H9v2h4v2h-2v2h2v2H9v2h4a2 2 0 0 0 2-2v-1.5a1.5 1.5 0 0 0-1.5-1.5 1.5 1.5 0 0 0 1.5-1.5"/></svg>

<svg  viewBox="0 0 24 24" fill="currentColor"><path  d="M12,3L22,12H19V20H5V12H2L12,3M15,11.5V10C15,8.89 14.1,8 13,8H9V10H13V12H11V14H13V16H9V18H13A2,2 0 0,0 15,16V14.5A1.5,1.5 0 0,0 13.5,13A1.5,1.5 0 0,0 15,11.5Z"/></svg>
